lib/healthicons/icons/outline/shapes/square_large.svg

<svg fill="none" height="48" viewBox="0 0 48 48" width="48" xmlns="http://www.w3.org/2000/svg"><path clip-rule="evenodd" d="m8 8v32h32v-32zm-1-2c-.55228 0-1 .44772-1 1v34c0 .5523.44772 1 1 1h34c.5523 0 1-.4477 1-1v-34c0-.55228-.4477-1-1-1z" fill="#333" fill-rule="evenodd"/></svg>

<svg width="48" height="48" viewBox="0 0 48 48" fill="none" xmlns="http://www.w3.org/2000/svg">
<path fill-rule="evenodd" clip-rule="evenodd" d="M8 8V40H40V8H8ZM7 6C6.44772 6 6 6.44772 6 7V41C6 41.5523 6.44772 42 7 42H41C41.5523 42 42 41.5523 42 41V7C42 6.44772 41.5523 6 41 6H7Z" fill="#333333"/>
</svg>
